austria/municipalities/70415.svg

<?xml version="1.0" encoding="UTF-8"?>
<!DOCTYPE svg PUBLIC "-//W3C//DTD SVG 1.1//EN" "http://www.w3.org/Graphics/SVG/1.1/DTD/svg11.dtd">
<svg xmlns="http://www.w3.org/2000/svg" version="1.1" width="166px" height="192px" style="shape-rendering:geometricPrecision; text-rendering:geometricPrecision; image-rendering:optimizeQuality; fill-rule:evenodd; clip-rule:evenodd" xmlns:xlink="http://www.w3.org/1999/xlink">
<g><path style="opacity:1" fill="#020201" d="M -0.5,-0.5 C 54.8333,-0.5 110.167,-0.5 165.5,-0.5C 165.5,39.5 165.5,79.5 165.5,119.5C 157.038,159.629 132.705,183.629 92.5,191.5C 85.5,191.5 78.5,191.5 71.5,191.5C 30.9271,182.927 6.9271,158.261 -0.5,117.5C -0.5,78.1667 -0.5,38.8333 -0.5,-0.5 Z"/></g>
<g><path style="opacity:1" fill="#185b2a" d="M 3.5,3.5 C 56.1667,3.5 108.833,3.5 161.5,3.5C 161.667,23.8361 161.5,44.1694 161,64.5C 135.085,47.7912 108.919,31.4578 82.5,15.5C 56.4174,31.9585 30.2507,48.2918 4,64.5C 3.50004,44.1694 3.33338,23.8361 3.5,3.5 Z"/></g>
<g><path style="opacity:1" fill="#185b2a" d="M 81.5,54.5 C 107.945,70.5608 134.278,86.8942 160.5,103.5C 162.758,134.818 150.758,158.984 124.5,176C 84.8177,196.193 49.9843,190.027 20,157.5C 8.43267,141.792 3.09933,124.125 4,104.5C 30.0081,87.9703 55.8414,71.3036 81.5,54.5 Z"/></g>
<g><path style="opacity:1" fill="#16150c" d="M 38.5,92.5 C 42.9679,93.5176 47.3012,94.8509 51.5,96.5C 52.2132,98.7759 52.7132,101.109 53,103.5C 58.3333,109.5 63.6667,115.5 69,121.5C 70.9372,129.257 67.7705,133.423 59.5,134C 56.5744,138.364 52.5744,139.864 47.5,138.5C 42.6831,142.449 37.8498,142.449 33,138.5C 28.1636,140.055 24.3302,138.721 21.5,134.5C 13.4662,134.307 9.9662,130.307 11,122.5C 16.6667,116.167 22.3333,109.833 28,103.5C 28.3333,101.167 28.6667,98.8333 29,96.5C 32.373,95.3288 35.5397,93.9955 38.5,92.5 Z"/></g>
<g><path style="opacity:1" fill="#dc9d1e" d="M 46.5,97.5 C 49.4947,95.9827 50.6614,96.9827 50,100.5C 48.9609,99.2899 47.7942,98.2899 46.5,97.5 Z"/></g>
<g><path style="opacity:1" fill="#c89020" d="M 30.5,96.5 C 33.7741,96.628 33.9408,97.9613 31,100.5C 30.51,99.2068 30.3433,97.8734 30.5,96.5 Z"/></g>
<g><path style="opacity:1" fill="#e3a21c" d="M 38.5,94.5 C 42.8859,95.366 46.3859,97.6994 49,101.5C 54.3333,107.5 59.6667,113.5 65,119.5C 69.3847,123.187 69.5514,127.02 65.5,131C 63.9556,132.187 62.2889,132.52 60.5,132C 56.1903,123.88 52.0236,115.713 48,107.5C 50.3313,116.182 53.8313,124.515 58.5,132.5C 55.9777,136.593 52.3111,138.26 47.5,137.5C 46.4012,127.691 44.9012,118.024 43,108.5C 43.0467,117.38 43.88,126.214 45.5,135C 45.5607,136.711 44.8941,138.044 43.5,139C 38.1439,140.833 35.4772,139 35.5,133.5C 36.1723,126.122 37.1723,118.788 38.5,111.5C 38.1667,110.5 37.8333,109.5 37.5,108.5C 35.8333,117.833 34.1667,127.167 32.5,136.5C 27.8309,137.999 24.4976,136.499 22.5,132C 26.3033,124.227 29.97,116.394 33.5,108.5C 33.1667,108.167 32.8333,107.833 32.5,107.5C 28.6822,115.136 24.8489,122.802 21,130.5C 14.4708,131.972 11.8041,129.305 13,122.5C 21.7066,113.296 30.2066,103.963 38.5,94.5 Z"/></g>
<g><path style="opacity:1" fill="#fdfdfd" d="M -0.5,117.5 C 6.9271,158.261 30.9271,182.927 71.5,191.5C 47.5,191.5 23.5,191.5 -0.5,191.5C -0.5,166.833 -0.5,142.167 -0.5,117.5 Z"/></g>
<g><path style="opacity:1" fill="#fdfdfd" d="M 165.5,119.5 C 165.5,143.5 165.5,167.5 165.5,191.5C 141.167,191.5 116.833,191.5 92.5,191.5C 132.705,183.629 157.038,159.629 165.5,119.5 Z"/></g>
<g><path style="opacity:1" fill="#15130b" d="M 123.5,92.5 C 127.844,93.4657 132.011,94.7991 136,96.5C 136.333,98.8333 136.667,101.167 137,103.5C 142,108.833 147,114.167 152,119.5C 156.561,127.877 154.061,132.71 144.5,134C 141.209,138.24 137.043,139.74 132,138.5C 127.912,142.125 123.745,142.292 119.5,139C 113.859,139.665 109.192,137.998 105.5,134C 95.2091,132.251 93.0425,127.084 99,118.5C 103.701,114.134 108.034,109.467 112,104.5C 113.092,101.956 113.759,99.2889 114,96.5C 117.684,96.1568 120.85,94.8234 123.5,92.5 Z"/></g>
<g><path style="opacity:1" fill="#a07421" d="M 131.5,97.5 C 133.377,96.0716 134.711,96.5716 135.5,99C 135.167,99.5 134.833,100 134.5,100.5C 133.712,99.2299 132.712,98.2299 131.5,97.5 Z"/></g>
<g><path style="opacity:1" fill="#cb9220" d="M 115.5,96.5 C 116.552,96.3505 117.552,96.5172 118.5,97C 115.202,101.589 114.202,101.422 115.5,96.5 Z"/></g>
<g><path style="opacity:1" fill="#e2a21d" d="M 123.5,94.5 C 124.552,94.3505 125.552,94.5172 126.5,95C 135.449,104.405 144.283,113.905 153,123.5C 153.255,127.987 151.255,130.987 147,132.5C 145.739,132.241 144.739,131.574 144,130.5C 140.694,122.554 136.861,114.888 132.5,107.5C 132.167,107.833 131.833,108.167 131.5,108.5C 135.273,115.712 138.773,123.045 142,130.5C 142.551,135.122 140.384,137.456 135.5,137.5C 134.228,137.43 133.062,137.097 132,136.5C 131.15,127.026 129.65,117.692 127.5,108.5C 127.167,108.833 126.833,109.167 126.5,109.5C 127.833,118.5 129.167,127.5 130.5,136.5C 128.109,139.239 125.109,140.072 121.5,139C 120.426,138.261 119.759,137.261 119.5,136C 121.143,126.714 122.143,117.547 122.5,108.5C 120.362,117.905 118.695,127.405 117.5,137C 112.433,138.467 109.1,136.801 107.5,132C 110.75,123.998 114.417,116.165 118.5,108.5C 118.167,108.167 117.833,107.833 117.5,107.5C 113.139,114.888 109.306,122.554 106,130.5C 103.146,133.016 100.479,132.683 98,129.5C 97.0087,127.553 96.6753,125.553 97,123.5C 105.393,113.34 114.226,103.673 123.5,94.5 Z"/></g>
<g><path style="opacity:1" fill="#18150c" d="M 80.5,128.5 C 84.3053,129.835 88.3053,130.668 92.5,131C 94.1553,133.507 94.9886,136.341 95,139.5C 100.667,145.833 106.333,152.167 112,158.5C 112.952,166.215 109.452,170.215 101.5,170.5C 98.4943,174.335 94.6609,175.668 90,174.5C 85.6497,178.235 81.1497,178.401 76.5,175C 71.1729,175.618 66.8395,173.951 63.5,170C 55.2408,169.433 52.0742,165.266 54,157.5C 59.3333,151.5 64.6667,145.5 70,139.5C 70.3333,137.167 70.6667,134.833 71,132.5C 73.405,131.726 75.905,131.226 78.5,131C 79.3805,130.292 80.0472,129.458 80.5,128.5 Z"/></g>
<g><path style="opacity:1" fill="#ce9420" d="M 89.5,133.5 C 90.209,132.596 91.209,132.263 92.5,132.5C 92.8098,137.452 91.8098,137.786 89.5,133.5 Z"/></g>
<g><path style="opacity:1" fill="#c68f20" d="M 72.5,132.5 C 77.2717,132.367 77.4384,133.7 73,136.5C 72.51,135.207 72.3433,133.873 72.5,132.5 Z"/></g>
<g><path style="opacity:1" fill="#e3a21c" d="M 80.5,130.5 C 81.8734,130.343 83.2068,130.51 84.5,131C 93,140.167 101.5,149.333 110,158.5C 111.16,165.175 108.327,168.175 101.5,167.5C 98.3939,159.285 94.7272,151.285 90.5,143.5C 90.1667,143.833 89.8333,144.167 89.5,144.5C 93.03,152.394 96.6967,160.227 100.5,168C 98.2971,172.688 94.7971,174.188 90,172.5C 88.6627,163.133 87.1627,153.8 85.5,144.5C 85.1667,145.333 84.8333,146.167 84.5,147C 85.6227,154.482 86.6227,161.982 87.5,169.5C 87.4871,174.999 84.8205,176.832 79.5,175C 79,174.5 78.5,174 78,173.5C 78.7486,163.843 79.4153,154.176 80,144.5C 78.3311,153.834 76.4978,163.167 74.5,172.5C 70.1272,173.986 66.7939,172.653 64.5,168.5C 67.7272,161.045 71.2272,153.712 75,146.5C 75.6667,145.5 75.6667,144.5 75,143.5C 70.6935,150.913 66.8602,158.579 63.5,166.5C 55.8811,167.96 53.3811,164.96 56,157.5C 64.3734,148.63 72.5401,139.63 80.5,130.5 Z"/></g>
</svg>

<svg xmlns="http://www.w3.org/2000/svg" width="166" height="192" style="shape-rendering:geometricPrecision;text-rendering:geometricPrecision;image-rendering:optimizeQuality;fill-rule:evenodd;clip-rule:evenodd"><path style="opacity:1" fill="#020201" d="M-.5-.5h166v120c-8.462 40.129-32.795 64.129-73 72h-21c-40.573-8.573-64.573-33.239-72-74V-.5z"/><path style="opacity:1" fill="#185b2a" d="M3.5 3.5h158c.167 20.336 0 40.67-.5 61a3157.887 3157.887 0 0 0-78.5-49A9472.434 9472.434 0 0 1 4 64.5c-.5-20.33-.667-40.664-.5-61z"/><path style="opacity:1" fill="#185b2a" d="M81.5 54.5a4960.9 4960.9 0 0 1 79 49c2.258 31.318-9.742 55.484-36 72.5-39.682 20.193-74.516 14.027-104.5-18.5-11.567-15.708-16.9-33.375-16-53a6757.004 6757.004 0 0 0 77.5-50z"/><path style="opacity:1" fill="#16150c" d="M38.5 92.5a90.453 90.453 0 0 1 13 4 38.816 38.816 0 0 1 1.5 7l16 18c1.937 7.757-1.23 11.923-9.5 12.5-2.926 4.364-6.926 5.864-12 4.5-4.817 3.949-9.65 3.949-14.5 0-4.836 1.555-8.67.221-11.5-4-8.034-.193-11.534-4.193-10.5-12l17-19 1-7a77.214 77.214 0 0 0 9.5-4z"/><path style="opacity:1" fill="#dc9d1e" d="M46.5 97.5c2.995-1.517 4.161-.517 3.5 3a14.692 14.692 0 0 0-3.5-3z"/><path style="opacity:1" fill="#c89020" d="M30.5 96.5c3.274.128 3.44 1.461.5 4a8.434 8.434 0 0 1-.5-4z"/><path style="opacity:1" fill="#e3a21c" d="M38.5 94.5c4.386.866 7.886 3.2 10.5 7l16 18c4.385 3.687 4.551 7.52.5 11.5-1.544 1.187-3.211 1.52-5 1A848.778 848.778 0 0 1 48 107.5c2.331 8.682 5.831 17.015 10.5 25-2.522 4.093-6.189 5.76-11 5a343.301 343.301 0 0 0-4.5-29c.047 8.88.88 17.714 2.5 26.5.06 1.711-.606 3.044-2 4-5.356 1.833-8.023 0-8-5.5a248.53 248.53 0 0 1 3-22l-1-3-5 28c-4.67 1.499-8.002-.001-10-4.5a751.06 751.06 0 0 0 11-23.5l-1-1-11.5 23c-6.53 1.472-9.196-1.195-8-8a996.325 996.325 0 0 0 25.5-28z"/><path style="opacity:1" fill="#fdfdfd" d="M-.5 117.5c7.427 40.761 31.427 65.427 72 74h-72v-74zM165.5 119.5v72h-73c40.205-7.871 64.538-31.871 73-72z"/><path style="opacity:1" fill="#15130b" d="M123.5 92.5c4.344.966 8.511 2.3 12.5 4l1 7 15 16c4.561 8.377 2.061 13.21-7.5 14.5-3.291 4.24-7.457 5.74-12.5 4.5-4.088 3.625-8.255 3.792-12.5.5-5.641.665-10.308-1.002-14-5-10.29-1.749-12.457-6.916-6.5-15.5a128.578 128.578 0 0 0 13-14 25.778 25.778 0 0 0 2-8c3.684-.343 6.85-1.677 9.5-4z"/><path style="opacity:1" fill="#a07421" d="M131.5 97.5c1.877-1.428 3.211-.928 4 1.5l-1 1.5c-.788-1.27-1.788-2.27-3-3z"/><path style="opacity:1" fill="#cb9220" d="M115.5 96.5a4.932 4.932 0 0 1 3 .5c-3.298 4.589-4.298 4.422-3-.5z"/><path style="opacity:1" fill="#e2a21d" d="M123.5 94.5a4.932 4.932 0 0 1 3 .5 1686.875 1686.875 0 0 1 26.5 28.5c.255 4.487-1.745 7.487-6 9-1.261-.259-2.261-.926-3-2a184.956 184.956 0 0 0-11.5-23l-1 1a331.675 331.675 0 0 1 10.5 22c.551 4.622-1.616 6.956-6.5 7a7.93 7.93 0 0 1-3.5-1 202.076 202.076 0 0 0-4.5-28l-1 1 4 27c-2.391 2.739-5.391 3.572-9 2.5-1.074-.739-1.741-1.739-2-3 1.643-9.286 2.643-18.453 3-27.5a290.394 290.394 0 0 0-5 28.5c-5.067 1.467-8.4-.199-10-5a250.268 250.268 0 0 1 11-23.5l-1-1a184.956 184.956 0 0 0-11.5 23c-2.854 2.516-5.521 2.183-8-1-.991-1.947-1.325-3.947-1-6a391.09 391.09 0 0 1 26.5-29z"/><path style="opacity:1" fill="#18150c" d="M80.5 128.5c3.805 1.335 7.805 2.168 12 2.5 1.655 2.507 2.489 5.341 2.5 8.5l17 19c.952 7.715-2.548 11.715-10.5 12-3.006 3.835-6.84 5.168-11.5 4-4.35 3.735-8.85 3.901-13.5.5-5.327.618-9.66-1.049-13-5-8.26-.567-11.426-4.734-9.5-12.5l16-18 1-7a34.041 34.041 0 0 1 7.5-1.5c.88-.708 1.547-1.542 2-2.5z"/><path style="opacity:1" fill="#ce9420" d="M89.5 133.5c.709-.904 1.709-1.237 3-1 .31 4.952-.69 5.286-3 1z"/><path style="opacity:1" fill="#c68f20" d="M72.5 132.5c4.772-.133 4.938 1.2.5 4a8.435 8.435 0 0 1-.5-4z"/><path style="opacity:1" fill="#e3a21c" d="M80.5 130.5a8.43 8.43 0 0 1 4 .5l25.5 27.5c1.16 6.675-1.673 9.675-8.5 9a194.107 194.107 0 0 0-11-24l-1 1a751.06 751.06 0 0 0 11 23.5c-2.203 4.688-5.703 6.188-10.5 4.5a807.764 807.764 0 0 0-4.5-28l-1 2.5a692.572 692.572 0 0 1 3 22.5c-.013 5.499-2.68 7.332-8 5.5l-1.5-1.5c.749-9.657 1.415-19.324 2-29a840.551 840.551 0 0 1-5.5 28c-4.373 1.486-7.706.153-10-4a331.876 331.876 0 0 1 10.5-22c.667-1 .667-2 0-3a205.51 205.51 0 0 0-11.5 23c-7.619 1.46-10.119-1.54-7.5-9a921.375 921.375 0 0 0 24.5-27z"/></svg>
